X:14313
T:Rival Reel
M:2/4
L:1/16
K:G
D2|GDGB dGBd|gfed cBAG|ABcd ecAG|GFAF D2EF|!
GDGB dGBd|gfed cBAG|ABcd ecAF|G2B2 G2:|!
|:FG|ADFD ADFD|cDBD A2GA|BDGD BDGD|dDcD B2D2|!
GDGB dGBd|gfed cBAG|ABcd ecAF|G2B2 G2:|!


